X:300
T: DER ZIEGLER AUF DER HUETTEN SASS
N: E0901
O: Europa, Mitteleuropa, Deutschland
R: Ehestands - Lied, betrogener Ehemann
M: 4/4
L: 1/8
K: F
c2 | c2c2c2B2 | A2A2G2
B2 | A2F2G2G2 | F4z2
F2 | B2B2c2c2 | d2d2c2
d2 | c2B2c2G2 | A2
d2c3B | A2F2G4 | F4z2

